svgs/thin/person-dress-simple.svg

<svg xmlns="http://www.w3.org/2000/svg" viewBox="0 0 256 512"><!-- Font Awesome Pro 6.0.0-alpha2 by @fontawesome - https://fontawesome.com License - https://fontawesome.com/license (Commercial License) --><path d="M128 128C163.375 128 192 99.375 192 64S163.375 0 128 0S64 28.625 64 64S92.625 128 128 128ZM128 16C154.467 16 176 37.533 176 64S154.467 112 128 112S80 90.467 80 64S101.533 16 128 16ZM255.375 363.604L203.834 183.209C199.908 169.471 187.352 160 173.065 160H82.936C68.649 160 56.092 169.471 52.166 183.209L0.625 363.604C-2.295 373.824 5.379 384 16.01 384H56V480C56 497.641 70.344 512 88 512S120 497.641 120 480V384H136V480C136 497.641 150.344 512 168 512S200 497.641 200 480V384H239.99C250.621 384 258.295 373.824 255.375 363.604ZM104 480C104 488.828 96.813 496 88 496S72 488.828 72 480V384H104V480ZM184 480C184 488.828 176.813 496 168 496S152 488.828 152 480V384H184V480ZM16.01 368L67.551 187.605C69.502 180.771 75.83 176 82.936 176H173.065C180.17 176 186.498 180.771 188.449 187.604L239.99 368H16.01Z"/></svg>

<svg xmlns="http://www.w3.org/2000/svg" viewBox="0 0 256 512"><!--! Font Awesome Pro 6.3.0 by @fontawesome - https://fontawesome.com License - https://fontawesome.com/license (Commercial License) Copyright 2023 Fonticons, Inc. --><path d="M128 128c35.38 0 64-28.62 64-64S163.4 0 128 0S63.1 28.62 63.1 64S92.63 128 128 128zM128 16c26.47 0 48 21.53 48 48S154.5 112 128 112S80 90.47 80 64S101.5 16 128 16zM255.4 363.6l-51.54-180.4C199.9 169.5 187.4 160 173.1 160H82.94C68.65 160 56.09 169.5 52.17 183.2l-51.54 180.4C-2.295 373.8 5.379 384 16.01 384H56v96c0 17.64 14.34 32 31.1 32S120 497.6 120 480v-96h16v96c0 17.64 14.34 32 32 32S200 497.6 200 480v-96h39.99C250.6 384 258.3 373.8 255.4 363.6zM104 480c0 8.828-7.188 16-16 16s-16-7.172-16-16v-96h32V480zM184 480c0 8.828-7.188 16-16 16s-16-7.172-16-16v-96h32V480zM16.01 368l51.54-180.4C69.5 180.8 75.83 176 82.94 176h90.13c7.105 0 13.43 4.771 15.38 11.6L239.1 368H16.01z"/></svg>
